_src/static/img/sprite/hands-with-heart.svg

<svg width="90" height="79" viewBox="0 0 90 79" fill="none" xmlns="http://www.w3.org/2000/svg">
<path d="M17.7922 36.4722H15.0229V24.7048C14.6075 22.4339 13.0152 20.0253 10.7306 20.0253H8.72293L8.58447 17.2727C8.72293 17.2727 8.79217 17.2727 8.8614 17.2727H10.6614C14.5383 17.2727 17.0999 20.8511 17.7229 24.3607V24.5671V36.4722H17.7922Z" fill="#08AF00"/>
<path d="M36.9692 62.0715H34.2V54.5706L33.5769 44.9365L20.8385 32.1368C20.4923 32.4809 20.0769 32.825 20.0769 32.825C18.6231 34.2013 17.9308 36.9539 19.1769 38.5366L27.2769 46.588L25.3385 48.5149L17.3769 40.6699C17.3077 40.6011 17.1692 40.4635 17.1 40.3946L12.5308 35.8528L7.68462 30.7605V18.3737C7.26923 16.1028 5.67692 13.6943 3.39231 13.6943H2.76923L2.97692 33.3755L18.9692 60.2135L16.6154 61.5898L0.276923 34.1324L0 11.0793L1.31538 11.0105C1.45385 11.0105 1.52308 11.0105 1.66154 11.0105H3.46154C7.33846 11.0105 9.9 14.5889 10.5231 18.0985V18.3049V29.6595L14.6077 33.926L15.9923 35.3023C16.2692 33.5819 17.1 31.9992 18.2769 30.8293C19.9385 29.2466 20.0077 29.1777 20.0769 29.1777L21.0462 28.352L36.4154 43.6978L37.1077 54.5018V62.0715H36.9692Z" fill="#08AF00"/>
<path d="M42.7848 79H40.0156V63.1037H14.4694V79H11.7002V60.3511H42.7848V79Z" fill="#08AF00"/>
<path d="M74.9772 36.4722H72.208V24.3607C72.7619 20.8511 75.3926 17.2727 79.2695 17.2727H81.0695C81.1388 17.2727 81.2772 17.2727 81.3465 17.2727L81.208 20.0253H81.0695H79.2003C76.9157 20.0253 75.3234 22.4339 74.908 24.7048V36.4722H74.9772Z" fill="#08AF00"/>
<path d="M55.8 62.0715H53.0308V54.433L53.7231 43.6978L69.0923 28.352L70.0615 29.1777C70.1308 29.2466 70.2 29.2466 71.7923 30.9669C72.9692 32.068 73.7308 33.6507 74.0077 35.3711L75.4615 33.926L79.4769 29.6595V18.0985C80.0308 14.5889 82.6615 11.0105 86.5384 11.0105H88.3384C88.4077 11.0105 88.5461 11.0105 88.6154 11.0105L89.8615 11.1481L90 12.3868L89.7923 34.2013L73.3846 61.6586L71.0308 60.2823L87.0231 33.4443L87.2308 13.7631H86.6077C84.3231 13.7631 82.7308 16.1716 82.3154 18.4426V30.7605L77.4692 35.8528L72.9 40.3946C72.8308 40.5323 72.6923 40.6699 72.5538 40.7387L64.6615 48.6525L62.5846 46.7945L62.7231 46.588L70.8231 38.5366C71.9308 36.9539 71.2385 34.2701 69.8538 32.8938C69.8538 32.8938 69.5077 32.5497 69.1615 32.1368L56.4231 44.8676L55.8 54.5018V62.0715Z" fill="#08AF00"/>
<path d="M78.2999 79H75.5307V63.1037H49.9846V79H47.2153V60.3511H78.2999V79Z" fill="#08AF00"/>
<path d="M45.2767 40.1882L26.8613 21.8145C21.946 16.8598 21.946 8.80836 26.8613 3.85366L26.9998 3.71603C29.4229 1.30749 32.6075 0 35.9998 0C39.3921 0 42.5767 1.30749 44.9998 3.71603L45.2075 3.92247L45.4152 3.71603C47.8383 1.30749 51.0229 0 54.4152 0C57.8075 0 60.9921 1.30749 63.4152 3.71603L63.5537 3.85366C68.469 8.80836 68.469 16.8598 63.5537 21.7456L45.2767 40.1882ZM35.9998 2.75261C33.369 2.75261 30.8767 3.78484 29.0075 5.64286L28.869 5.78049C24.9921 9.63415 24.9921 15.9652 28.869 19.8188L45.2767 36.1969L61.6152 19.8876C65.4921 16.034 65.4921 9.70296 61.6152 5.8493L61.4767 5.71167C59.6075 3.78484 57.1152 2.75261 54.4844 2.75261C51.8537 2.75261 49.3613 3.78484 47.4921 5.64286L45.2767 7.84495L43.0613 5.64286C41.1921 3.78484 38.6998 2.75261 35.9998 2.75261Z" fill="#08AF00"/>
</svg>

<svg width="90" height="79" fill="none" xmlns="http://www.w3.org/2000/svg"><path d="M17.792 36.472h-2.77V24.705c-.415-2.271-2.007-4.68-4.291-4.68H8.723l-.139-2.752h2.077c3.877 0 6.439 3.578 7.062 7.088v12.111h.07z" fill="#08AF00"/><path d="M36.97 62.072H34.2V54.57l-.623-9.634-12.738-12.8c-.347.344-.762.688-.762.688-1.454 1.376-2.146 4.129-.9 5.712l8.1 8.051-1.939 1.927-7.961-7.845-.277-.275-4.57-4.542-4.845-5.093V18.375c-.416-2.271-2.008-4.68-4.293-4.68H2.77l.208 19.682L18.97 60.215l-2.354 1.376L.277 34.132 0 11.08l1.315-.069h2.147c3.876 0 6.438 3.579 7.061 7.089v11.56l4.085 4.266 1.384 1.376a8.19 8.19 0 012.285-4.473c1.662-1.582 1.73-1.651 1.8-1.651l.97-.826 15.368 15.346.693 10.804v7.57h-.139z" fill="#08AF00"/><path d="M42.785 79h-2.77V63.104H14.47V79H11.7V60.351h31.085V79zm32.192-42.528h-2.769V24.361c.554-3.51 3.185-7.088 7.061-7.088h2.078l-.139 2.752H79.2c-2.284 0-3.877 2.409-4.292 4.68v11.767h.07z" fill="#08AF00"/><path d="M55.8 62.072h-2.77v-7.639l.693-10.735 15.37-15.346.968.826c.07.069.139.069 1.731 1.789 1.177 1.101 1.939 2.684 2.216 4.404l1.454-1.445 4.015-4.267V18.1c.554-3.51 3.184-7.088 7.061-7.088h2.077l1.247.137.138 1.239-.208 21.814L73.385 61.66l-2.354-1.377 15.992-26.838.208-19.68h-.623c-2.285 0-3.877 2.408-4.293 4.679V30.76l-4.846 5.093-4.569 4.542a.831.831 0 01-.346.344l-7.892 7.914-2.077-1.858.138-.207 8.1-8.051c1.108-1.583.416-4.267-.97-5.643 0 0-.345-.344-.691-.757l-12.739 12.73-.623 9.635v7.57z" fill="#08AF00"/><path d="M78.3 79h-2.77V63.104H49.986V79h-2.77V60.351H78.3V79zM45.277 40.188L26.86 21.814c-4.915-4.954-4.915-13.006 0-17.96l.14-.138A12.66 12.66 0 0136 0a12.66 12.66 0 019 3.716l.208.206.207-.206a12.66 12.66 0 019-3.716 12.66 12.66 0 019 3.716l.139.138c4.915 4.954 4.915 13.006 0 17.892L45.277 40.188zM36 2.753a9.88 9.88 0 00-6.992 2.89l-.139.137c-3.877 3.854-3.877 10.185 0 14.039l16.408 16.378 16.338-16.31c3.877-3.853 3.877-10.184 0-14.038l-.138-.137a9.666 9.666 0 00-6.993-2.96 9.88 9.88 0 00-6.992 2.89l-2.215 2.203-2.216-2.202C41.192 3.785 38.7 2.753 36 2.753z" fill="#08AF00"/></svg>
